packages/core/src/svgs/jasmy.svg

<svg width="24" height="24" viewBox="0 0 24 24" fill="none" xmlns="http://www.w3.org/2000/svg">
<g clip-path="url(#clip0_31_11973)">
<path d="M0 0H24V24H0V0Z" fill="#F0F3FA"/>
<path fill-rule="evenodd" clip-rule="evenodd" d="M9.50411 5.15303C9.91596 5.00303 10.3454 4.8886 10.7881 4.81446V5.18774H11.4052V4.73774C11.8086 4.70521 12.214 4.70593 12.6172 4.73988V5.18774H13.2348V4.81831C13.6805 4.8946 14.113 5.01117 14.5274 5.16417L14.3744 5.48174L14.9311 5.7496L15.0974 5.40331C15.4865 5.58631 15.8568 5.80317 16.2048 6.04917L15.9704 6.31917L16.4371 6.72417L16.6942 6.4276C17.0285 6.7096 17.3371 7.0216 17.6165 7.35888L17.3311 7.54188L17.6645 8.06174L17.9907 7.85217C18.235 8.2036 18.4484 8.57817 18.6284 8.97074L18.3232 9.07231L18.5182 9.65817L18.8615 9.54417C19.0077 9.9526 19.1187 10.3782 19.1902 10.817H18.8564V11.4436L19.2644 11.4346C19.2966 11.8563 19.2926 12.28 19.2524 12.701L19.2494 12.686H18.8422V13.3126L19.1692 13.3057C19.0915 13.7354 18.975 14.1571 18.8212 14.5657L18.5435 14.4256L18.2607 14.9849L18.5778 15.1366C18.3935 15.5232 18.1754 15.8909 17.9285 16.2363L17.7151 16.0199L17.269 16.4596L17.5441 16.727C17.2665 17.0524 16.9609 17.3528 16.6308 17.6249L16.4855 17.3613L15.937 17.6635L16.1324 18.0012C15.7967 18.2328 15.4422 18.4358 15.0725 18.608L15.001 18.3355L14.395 18.4949L14.4957 18.8467C14.0787 18.9989 13.6437 19.1142 13.195 19.1883V18.8613H12.6035V19.2612C12.1929 19.2948 11.7802 19.2939 11.3697 19.2586V18.8677H10.7782V19.1836C10.3527 19.1118 9.93448 19.0021 9.52853 18.8557L9.63225 18.4949L9.02625 18.3355L8.95168 18.6192C8.54275 18.4305 8.15222 18.2042 7.78511 17.9433L7.96896 17.7419L7.56268 17.3716L7.34796 17.6073C7.01912 17.3341 6.71481 17.0327 6.43853 16.7065L6.67682 16.5329L6.31382 16.0332L6.05925 16.2183C5.8081 15.8654 5.58895 15.4908 5.40439 15.0989L5.69025 15.014L5.51411 14.4222L5.16439 14.5263C5.01696 14.1273 4.90296 13.712 4.82711 13.2839L5.18282 13.2663L5.15282 12.6492L4.74482 12.6697C4.70616 12.2456 4.70429 11.8188 4.73925 11.3943L5.11211 11.4299L5.16953 10.8149L4.81596 10.7815C4.88882 10.3477 5.00025 9.92688 5.14596 9.52274L5.46139 9.66374L5.71339 9.09974L5.38082 8.95146C5.55953 8.56403 5.77125 8.19503 6.01253 7.84788L6.30953 8.08103L6.69096 7.59546L6.38582 7.35588C6.66053 7.02417 6.96439 6.71731 7.29268 6.43874L7.51682 6.72117L8.00025 6.33717L7.78039 6.05988C8.14168 5.80274 8.52696 5.57774 8.93325 5.38917L9.09696 5.7466L9.65839 5.48946L9.50411 5.15303ZM12.0001 17.9999C15.3138 17.9999 18.0001 15.3136 18.0001 11.9999C18.0001 8.68617 15.3138 5.99988 12.0001 5.99988C8.68639 5.99988 6.00011 8.68617 6.00011 11.9999C6.00011 15.3136 8.68639 17.9999 12.0001 17.9999ZM17.5715 11.9999C17.5715 15.077 15.0772 17.5713 12.0001 17.5713C8.92296 17.5713 6.42868 15.077 6.42868 11.9999C6.42868 8.92274 8.92296 6.42846 12.0001 6.42846C15.0772 6.42846 17.5715 8.92274 17.5715 11.9999ZM12.0001 8.99988C12.2274 8.99988 12.4455 8.90958 12.6062 8.74883C12.7669 8.58809 12.8572 8.37007 12.8572 8.14274C12.8572 7.91541 12.7669 7.6974 12.6062 7.53665C12.4455 7.3759 12.2274 7.2856 12.0001 7.2856C11.7728 7.2856 11.5548 7.3759 11.394 7.53665C11.2333 7.6974 11.143 7.91541 11.143 8.14274C11.143 8.37007 11.2333 8.58809 11.394 8.74883C11.5548 8.90958 11.7728 8.99988 12.0001 8.99988ZM9.85725 11.1427L12.8572 9.48803V12.0637L15.8572 10.5475V11.1196L12.8572 12.641V14.5383C12.8572 15.9882 11.9924 16.886 10.9471 16.886C10.0034 16.886 9.10082 16.3945 9.10082 15.206C9.10082 14.1209 10.318 13.2282 11.5715 12.6406V10.8063L9.85725 11.6772V11.1427ZM11.5715 14.2983V13.2856C10.8725 13.6987 10.3964 14.378 10.3145 14.8147C10.2327 15.2519 10.2991 15.9466 10.8738 15.8476C11.449 15.7482 11.5715 14.8147 11.5715 14.2983Z" fill="#F6931E"/>
</g>
<defs>
<clipPath id="clip0_31_11973">
<rect width="24" height="24" fill="white"/>
</clipPath>
</defs>
</svg>

<svg xmlns="http://www.w3.org/2000/svg" width="24" height="24" fill="none" viewBox="0 0 24 24"><g clip-path="url(#a)"><path fill="#F0F3FA" d="M0 0h24v24H0z"/><path fill="#F6931E" fill-rule="evenodd" d="M9.504 5.153q.619-.226 1.284-.339v.374h.617v-.45a7.4 7.4 0 0 1 1.212.002v.448h.618v-.37q.67.116 1.292.346l-.153.318.557.268.166-.347q.585.276 1.108.646l-.235.27.467.405.257-.296q.503.425.922.93l-.285.184.334.52.326-.21q.366.529.637 1.119l-.305.101.195.586.343-.114q.221.614.33 1.273h-.335v.627l.408-.01q.05.634-.012 1.267l-.003-.015h-.407v.627l.327-.007q-.117.646-.348 1.26l-.277-.14-.283.559.317.152a7.3 7.3 0 0 1-.65 1.1l-.213-.217-.446.44.275.267a7.3 7.3 0 0 1-.913.898l-.146-.264-.548.302.195.338q-.504.349-1.06.607l-.071-.273-.606.16.1.352a7.2 7.2 0 0 1-1.3.341v-.327h-.591v.4q-.618.05-1.234-.002v-.391h-.592v.316a7 7 0 0 1-1.25-.328l.104-.361-.606-.16-.074.284a7.3 7.3 0 0 1-1.167-.676l.184-.201-.406-.37-.215.235a7.3 7.3 0 0 1-.91-.9l.239-.174-.363-.5-.255.185a7.3 7.3 0 0 1-.655-1.12l.286-.084-.176-.592-.35.104a7 7 0 0 1-.337-1.242l.356-.018-.03-.617-.408.02a7.4 7.4 0 0 1-.006-1.275l.373.036.058-.615-.354-.034q.11-.65.33-1.258l.315.14.252-.563-.332-.149q.269-.582.632-1.103l.297.233.381-.486-.305-.24q.413-.497.907-.916l.224.282L8 6.337l-.22-.277a7.3 7.3 0 0 1 1.153-.67l.164.357.561-.258zM12 18a6 6 0 1 0 0-12 6 6 0 0 0 0 12m5.572-6a5.571 5.571 0 1 1-11.143 0 5.571 5.571 0 0 1 11.143 0M12 9a.857.857 0 1 0 0-1.714A.857.857 0 0 0 12 9m-2.143 2.143 3-1.655v2.576l3-1.517v.573l-3 1.521v1.897c0 1.45-.865 2.348-1.91 2.348-.944 0-1.846-.491-1.846-1.68 0-1.085 1.217-1.978 2.47-2.565v-1.835l-1.714.871zm1.715 3.155v-1.012c-.7.413-1.176 1.092-1.257 1.529-.082.437-.016 1.132.559 1.033.575-.1.697-1.033.697-1.55" clip-rule="evenodd"/></g><defs><clipPath id="a"><path fill="#fff" d="M0 0h24v24H0z"/></clipPath></defs></svg>
